dist/svgs/unicons/line/horizontal-align-left.svg

<svg xmlns="http://www.w3.org/2000/svg" viewBox="0 0 24 24"><path d="M21 10h-5V7a1 1 0 00-1-1H4V3a1 1 0 00-2 0v18a1 1 0 002 0v-3h17a1 1 0 001-1v-6a1 1 0 00-1-1zM4 8h10v2H4zm16 8H4v-4h16z"/></svg>

<svg xmlns="http://www.w3.org/2000/svg" viewBox="0 0 24 24"><path d="M21,10H16V7a1,1,0,0,0-1-1H4V3A1,1,0,0,0,2,3V21a1,1,0,0,0,2,0V18H21a1,1,0,0,0,1-1V11A1,1,0,0,0,21,10ZM4,8H14v2H4Zm16,8H4V12H20Z"/></svg>
